icon-svg/kuma.svg

<svg xmlns="http://www.w3.org/2000/svg" viewBox="0 0 24 24"><path fill="#44739e" d="M11.814 9.306a2.91 2.91 0 0 0-2.678 1.472 7.5 7.5 0 0 0-.62 2.626 1.3 1.3 0 0 0 .181.8 6.6 6.6 0 0 0 3.21.482 10.8 10.8 0 0 0 3.571-.653 9.1 9.1 0 0 0-.905-3.198 3.01 3.01 0 0 0-2.759-1.529M20.443 8l-.1-.224-.129-.207a10.2 10.2 0 0 0-3.559-3.528 9.6 9.6 0 0 0-4.843-1.242A9.5 9.5 0 0 0 6.97 4.048 10.04 10.04 0 0 0 3.442 7.6l-.14.225-.1.247a14.2 14.2 0 0 0-1.2 5.332 7.6 7.6 0 0 0 1.74 5.029c1.926 2.288 5.285 2.769 7.762 2.769h.117a19.7 19.7 0 0 0 3.91-.417 12 12 0 0 0 3.518-1.266 5.98 5.98 0 0 0 2.943-5.463A15.5 15.5 0 0 0 20.443 8m-1.505 11.328a11.8 11.8 0 0 1-3.453 1.242 19.5 19.5 0 0 1-3.865.412h-.116c-2.459 0-5.729-.474-7.596-2.691a7.38 7.38 0 0 1-1.689-4.887 14 14 0 0 1 1.183-5.248l.1-.232.129-.213a9.8 9.8 0 0 1 3.451-3.477 9.3 9.3 0 0 1 4.732-1.22 9.4 9.4 0 0 1 4.734 1.213 10 10 0 0 1 3.481 3.453l.121.194.091.209a15.3 15.3 0 0 1 1.531 5.973 5.77 5.77 0 0 1-2.834 5.272m1.101-11.157-.085-.194-.112-.18a9.74 9.74 0 0 0-3.404-3.378 9.15 9.15 0 0 0-4.624-1.186 9.1 9.1 0 0 0-4.621 1.191 9.6 9.6 0 0 0-3.375 3.398l-.121.2-.087.215a13.7 13.7 0 0 0-1.167 5.165 7.16 7.16 0 0 0 1.637 4.745c1.845 2.199 5.143 2.626 7.539 2.612a19.3 19.3 0 0 0 3.82-.406 11.6 11.6 0 0 0 3.389-1.217 5.56 5.56 0 0 0 2.723-5.082 15.1 15.1 0 0 0-1.512-5.883m-2.681 8.437c-2.534 1.47-9.138 1.919-11.039-.342q-1.899-2.261 0-6.923a6.1 6.1 0 0 1 5.497-3.183 6.21 6.21 0 0 1 5.544 3.183q2.533 5.793-.002 7.265"/></svg>

<?xml version="1.0" encoding="UTF-8"?>
<svg width="24px" fill="#44739e" height="24px" viewBox="0 0 24 24" version="1.1" xmlns="http://www.w3.org/2000/svg" xmlns:xlink="http://www.w3.org/1999/xlink">
            <path d="m 11.817,9.307 a 2.907,2.907 0 0 0 -2.68,1.472 7.5,7.5 0 0 0 -0.62,2.628 1.31,1.31 0 0 0 0.181,0.8 6.571,6.571 0 0 0 3.212,0.482 10.836,10.836 0 0 0 3.573,-0.653 9.1,9.1 0 0 0 -0.906,-3.2 3.013,3.013 0 0 0 -2.76,-1.529 z M 20.45,8 20.35,7.776 20.221,7.569 A 10.191,10.191 0 0 0 16.66,4.039 9.6,9.6 0 0 0 11.815,2.796 9.526,9.526 0 0 0 6.97,4.046 10.04,10.04 0 0 0 3.44,7.6 L 3.3,7.825 3.2,8.072 A 14.181,14.181 0 0 0 2,13.407 7.592,7.592 0 0 0 3.741,18.438 c 1.927,2.29 5.287,2.771 7.766,2.771 h 0.117 A 19.707,19.707 0 0 0 15.536,20.792 12.015,12.015 0 0 0 19.055,19.525 5.979,5.979 0 0 0 22,14.059 15.509,15.509 0 0 0 20.45,8 Z m -1.506,11.334 a 11.8,11.8 0 0 1 -3.454,1.242 19.486,19.486 0 0 1 -3.867,0.413 h -0.116 c -2.461,0 -5.732,-0.475 -7.6,-2.693 A 7.375,7.375 0 0 1 2.217,13.407 13.961,13.961 0 0 1 3.4,8.156 L 3.5,7.924 3.63,7.711 a 9.812,9.812 0 0 1 3.452,-3.479 9.313,9.313 0 0 1 4.735,-1.221 9.392,9.392 0 0 1 4.736,1.214 9.993,9.993 0 0 1 3.483,3.455 l 0.121,0.194 0.091,0.209 a 15.3,15.3 0 0 1 1.532,5.976 5.766,5.766 0 0 1 -2.836,5.275 z M 20.046,8.171 19.961,7.977 19.849,7.797 A 9.747,9.747 0 0 0 16.443,4.417 9.159,9.159 0 0 0 11.817,3.231 9.1,9.1 0 0 0 7.193,4.422 9.6,9.6 0 0 0 3.817,7.822 l -0.121,0.2 -0.087,0.215 a 13.731,13.731 0 0 0 -1.168,5.168 7.157,7.157 0 0 0 1.638,4.747 c 1.846,2.2 5.145,2.628 7.543,2.614 a 19.256,19.256 0 0 0 3.822,-0.407 11.591,11.591 0 0 0 3.39,-1.217 5.555,5.555 0 0 0 2.725,-5.085 15.1,15.1 0 0 0 -1.513,-5.886 z m -2.682,8.441 C 14.828,18.083 8.221,18.532 6.319,16.27 q -1.9,-2.262 0,-6.926 a 6.1,6.1 0 0 1 5.5,-3.185 6.209,6.209 0 0 1 5.547,3.185 q 2.534,5.796 -0.002,7.268 z"/>

</svg>
